Catalina-light/actions/16/mail-reply-all.svg

<svg xmlns="http://www.w3.org/2000/svg" width="16" height="16" viewBox="0 0 16 16">
 <defs>
  <style id="current-color-scheme" type="text/css">
   .ColorScheme-Text { color:#5c616c; } .ColorScheme-Highlight { color:#5294e2; }
  </style>
 </defs>
 <path style="fill:currentColor" class="ColorScheme-Text" d="M 6.5 1.5 L 0.029296875 6 L 6.5 10.5 L 6.5 9.4570312 L 1.5292969 6 L 6.5 2.5429688 L 6.5 1.5 z M 10 1.5 L 3.53125 6 L 10 10.5 L 10 8 L 10.5 8 C 11.8649 8 13.0716 8.87335 13.4375 10 C 13.87513 11.3475 12 14 12 14 C 12 14 16 12.5 16 9.25 C 16 6.1265 14 4 11 4 L 10 4 L 10 1.5 z"/>
</svg>

<svg width="16" height="16" viewBox="0 0 16 16" xmlns="http://www.w3.org/2000/svg">
<defs>
<style id="current-color-scheme" type="text/css">.ColorScheme-Text { color:#5c616c; } .ColorScheme-Highlight { color:#5294e2; }</style>
</defs>
<path class="ColorScheme-Text" d="m6.5 1.5-6.4707 4.5 6.4707 4.5v-1.043l-4.9707-3.457 4.9707-3.457v-1.043zm3.5 0-6.4688 4.5 6.4688 4.5v-2.5h0.5c1.3649 0 2.5716 0.87335 2.9375 2 0.43763 1.3475-1.4375 4-1.4375 4s4-1.5 4-4.75c0-3.1235-2-5.25-5-5.25h-1v-2.5z" fill="currentColor"/>
</svg>
